X: 1032
T: Hinchy's Delight
R:double jig
N:"collected by F. O'Neill"
B:O'Neill's 1032
Z:Transcribed by henrik.norbeck@mailbox.swipnet.se
M:6/8
L:1/8
K:G
A|BAB GBG|AFD F2 G|AGA fed|cAG FGA|
BAB GBG|AFD F2 G|AGA fed|cAF G2:|
d|gfg afd|gfg a2 d|gfg b2 g|a2 g fga|
geg fed|fed cde|fef ded|cAF G2:|


